X: 39
T: Trouble on My Mind
B: canberra pickers and fiddlers
B: tunes
M:C|
L:1/8
R: reel
Q: 1/4=100
K:A
V:1 
[ce]-[e2e2][ee] [e2e2]ef|[M:3/2]=g2ga gedc [d2f2][d2f2]|[M:C|] ABcA [d2f2][d2f2]|e3f e2AB|
cAcA dcBG|[M:2/4]A2A2:||:[A,2E2]AB cABA|c2 cd c2c2|
[A,2E2] AB cABG|A2 AB A2A2|[A,2E2]AB cABA|c2 cd c2a2|
e2d2cABG|1A2AB A2A2:|2[M:2/4]A2A2||
% abcbook-tune_id 63da5934683be50ec27664a2
% abcbook-tune_composer_id 
% abcbook-link-0 https://www.youtube.com/watch?v=bAfvzaWqVZs
% abcbook-link-start-at-0 27
% abcbook-link-end-at-0 150
% abcbook-boost 0
% abcbook-difficulty 0
% abcbook-tags canberra pickers and fiddlers,old time tunes,© free
% abcbook-tablature 
% abcbook-transpose 
% abcbook-tuning AEAE
% abcbook-lastupdated 1687920316673
% abcbook-src-url https://tunebook.net/scrape/tunes.abc
% abcbook-soundfonts 
% abcbook-repeats 1
%%gchordfont "itim-music,Itim" 20

